X: 20362
T: John Cheap The Chapman
R: reel
M: 4/4
K: Gminor
A|G2dG BGBg|G2dB AFFA|G2dG B>cdB|Afcf AFF:|
A|Ggg>d B>cdB|Ggg>B AFFA|Ggg>d BcdB|Acfc AFFA|
Ggg>d B>cdB|Ggg>B AFFA|Ggbg ^fdg=e|=fcdB AFcA||

